packages/foundations/icons/Activities/Swimming.svg

<svg width="24" height="24" viewBox="0 0 24 24" fill="none" xmlns="http://www.w3.org/2000/svg">
<path fill-rule="evenodd" clip-rule="evenodd" d="M23.1843 17.537C23.587 17.9149 23.6072 18.5478 23.2293 18.9505C22.8514 19.3533 22.2185 19.3734 21.8158 18.9955C19.9444 17.2396 18.3861 17.0248 15.5541 18.1709L15.0559 18.3807L14.5309 18.617C14.4411 18.6586 14.3501 18.7012 14.2578 18.745L13.6894 19.0205L13.0898 19.3221L12.1394 19.8103L11.5537 20.1047L11.0148 20.3676C10.9286 20.4089 10.8441 20.4489 10.7611 20.4878L10.2814 20.7068L9.83385 20.8987C8.82229 21.3165 8.02451 21.5283 7.10311 21.6372C4.82626 21.9063 2.78469 21.1285 0.919623 19.1148L0.75232 18.9303C0.385577 18.5174 0.423026 17.8853 0.835964 17.5186C1.2489 17.1518 1.88096 17.1893 2.2477 17.6022L2.38697 17.7558C4.40582 19.9356 6.04881 20.2452 9.11225 19.0033L9.60802 18.7943C9.6927 18.7574 9.77843 18.7194 9.86524 18.6803L10.3994 18.4332L10.961 18.161L11.5518 17.864L12.7863 17.2319L13.3396 16.9571C13.4279 16.914 13.5143 16.8721 13.599 16.8314L14.0874 16.602L14.5406 16.4002C15.4159 16.0229 16.1175 15.7992 16.8737 15.6549L17.2573 15.5891C19.4249 15.2563 21.3823 15.8462 23.1843 17.537ZM16.7 2.60009C17.1678 3.22385 17.0764 4.09338 16.5115 4.60792L16.4 4.70009L13.535 6.84809L15.7481 10.168C16.1314 10.743 16.0646 11.4839 15.6361 11.9802C16.0576 11.8379 16.4574 11.7344 16.8737 11.6549L17.2573 11.5891C19.4249 11.2563 21.3823 11.8462 23.1843 13.537C23.587 13.9149 23.6072 14.5478 23.2293 14.9505C22.8514 15.3533 22.2185 15.3734 21.8158 14.9955C19.9444 13.2396 18.3861 13.0248 15.5541 14.1709L15.0559 14.3807L14.5309 14.617C14.4411 14.6586 14.3501 14.7012 14.2578 14.745L13.6894 15.0205L13.0898 15.3221L12.1394 15.8103L11.5537 16.1047L11.0148 16.3676C10.9286 16.4089 10.8441 16.4489 10.7611 16.4878L10.2814 16.7068L9.83385 16.8987C8.82229 17.3165 8.02451 17.5283 7.10311 17.6372C4.82626 17.9063 2.78469 17.1285 0.919623 15.1148L0.75232 14.9303C0.385577 14.5174 0.423026 13.8853 0.835964 13.5186C1.2489 13.1518 1.88096 13.1893 2.2477 13.6022L2.38697 13.7558C3.29835 14.7398 4.13312 15.3427 5.05656 15.5938C5.14159 15.2901 5.32198 15.0129 5.58615 14.8105L5.70501 14.7281L12.395 10.5471L10.8022 8.15751C10.0871 7.08487 10.3016 5.63996 11.264 4.80954L11.3999 4.7002L14.6 2.30009C15.2628 1.80303 16.203 1.93735 16.7 2.60009ZM19 5.50009C20.3807 5.50009 21.5 6.61938 21.5 8.00009C21.5 9.3808 20.3807 10.5001 19 10.5001C17.6193 10.5001 16.5 9.3808 16.5 8.00009C16.5 6.61938 17.6193 5.50009 19 5.50009Z" fill="#3D474D"/>
</svg>

<svg width="24" height="24" fill="none" xmlns="http://www.w3.org/2000/svg"><path fill-rule="evenodd" clip-rule="evenodd" d="M23.184 17.537a1 1 0 01-1.368 1.459c-1.872-1.756-3.43-1.971-6.262-.825l-.498.21-.525.236-.273.128-.569.275-.6.302-.95.488-.585.295-.54.263-.253.12-.48.219-.447.192c-1.012.418-1.81.63-2.73.738-2.278.27-4.32-.509-6.184-2.522l-.168-.185a1 1 0 111.496-1.328l.139.154c2.019 2.18 3.662 2.49 6.725 1.247l.496-.209.257-.114.534-.247.562-.272.59-.297 1.235-.632.554-.275.259-.126.488-.229.454-.202c.875-.377 1.576-.6 2.333-.745l.383-.066c2.168-.333 4.125.257 5.927 1.948zM16.7 2.6a1.5 1.5 0 01-.188 2.008L16.4 4.7l-2.865 2.148 2.213 3.32a1.5 1.5 0 01-.112 1.812 9.196 9.196 0 011.238-.325l.383-.066c2.168-.333 4.125.257 5.927 1.948a1 1 0 01-1.368 1.458c-1.872-1.755-3.43-1.97-6.262-.824l-.498.21-.525.236-.273.128-.569.276-.6.301-.95.488-.585.295-.54.263-.253.12-.48.219-.447.192c-1.012.418-1.81.63-2.73.738-2.278.27-4.32-.509-6.184-2.522l-.168-.185a1 1 0 111.496-1.328l.139.154c.911.984 1.746 1.587 2.67 1.838a1.49 1.49 0 01.53-.784l.118-.082 6.69-4.18-1.593-2.39a2.564 2.564 0 01.462-3.348l.136-.11 3.2-2.4a1.5 1.5 0 012.1.3zM19 5.5a2.5 2.5 0 110 5 2.5 2.5 0 010-5z" fill="#3D474D"/></svg>
